X: 5
T: The Morning Thrush
R: reel
M: 4/4
L: 1/8
K: Dmaj
|:ag|f2 ef d2 AF|AdAF Agfe|d2 AF DF F2|ABdf egfe|
d2 AF dAAF|BAFA dADE|EDFA defa|afef d2:||
|:(3ABc|dcde faaf|g3e fgfe|d2 (3gfe faaf|gafg eAce|
dffe fa a2|bgaf ecdB|ADFA defa|afef d2:|
|:(3ABc|dAAF BAAF|D3F ADFA|dFFE F3B|ABdf e2 (3gfe|
dFAF DF F2|AdFA DF F2|ABdf defa|afef d2:||


Tune 967	Setting 14162

